frontend/public/svg/logos/snapchat.svg

<svg width="160" height="147" viewBox="0 0 160 147" fill="none" xmlns="http://www.w3.org/2000/svg">
<g clip-path="url(#clip0)">
<path d="M153.473 106.27C152.816 105.8 152.164 105.326 151.517 104.851C150.899 104.4 150.278 103.95 149.658 103.501C138.187 95.2542 132.604 83.4172 131.577 65.154L134.828 62.6896C138.087 60.2211 141.304 57.7833 144.503 55.3253L145.078 54.8856C146.409 53.9354 147.645 52.8584 148.77 51.6696C150.991 49.1755 151.067 45.8499 148.946 43.768C146.977 41.8383 144.367 41.6058 141.778 43.1318C140.896 43.6897 140.072 44.3342 139.318 45.0556C139.037 45.3063 138.758 45.557 138.471 45.7959L129.909 52.9291C129.857 52.6456 129.807 52.3692 129.757 52.0975C129.429 50.2807 129.167 48.846 128.759 47.3903C128.279 45.6667 127.84 43.8768 127.414 42.1454L127.389 42.0444C126.278 37.5157 125.129 32.8294 123.115 28.5651C116.775 15.1345 105.985 5.97408 91.9123 2.07477C74.4668 -2.75981 54.8243 5.08068 44.1424 21.1406C37.6447 30.9135 35.5687 41.8009 34.489 50.1935C34.2672 51.9164 34.0401 53.6393 33.767 55.7153L33.6653 56.4845L32.3034 55.1718C29.974 52.9265 27.9624 50.9876 25.912 49.0619L25.5838 48.752C24.5198 47.6693 23.3347 46.7128 22.052 45.9011C20.8209 45.1127 19.3389 44.8147 17.8987 45.0659C16.4585 45.317 15.1648 46.0991 14.2731 47.2576C13.4248 48.2811 12.9772 49.578 13.0134 50.9069C13.0496 52.2358 13.5672 53.506 14.47 54.4818C15.7131 55.884 17.0828 57.1688 18.5616 58.3196C22.0081 61.1707 25.5497 64.0554 28.6745 66.5998L31.968 69.2849C31.8367 80.5923 28.9141 91.6254 23.7316 100.386C19.2941 107.889 13.3306 111.993 5.50051 112.931C4.45759 113.055 1.48569 112.62 0.769625 115.569C-0.438694 120.547 1.25858 122.219 6.41411 124.723C10.4375 126.676 14.6663 128.315 18.7881 129.913C21.0675 130.797 23.4238 131.711 25.7059 132.665C27.184 133.282 28.6712 133.991 29.5382 134.988C33.9154 140.009 37.3801 140.956 43.2688 138.739C44.7127 138.194 46.1009 137.516 47.466 136.848L48.2773 136.454C52.5672 134.376 56.3227 134.738 60.0973 137.594C63.5848 140.237 67.3823 142.444 71.4063 144.164C74.6899 145.612 78.2316 146.386 81.8204 146.441H81.825C86.8506 146.403 91.7167 144.671 95.637 141.525C96.3471 140.981 97.0685 140.448 97.8364 139.88C98.3614 139.493 98.8839 139.104 99.405 138.714C101.751 136.882 104.46 135.57 107.353 134.866C110.245 134.163 113.254 134.083 116.18 134.633C116.77 134.73 117.37 134.839 117.968 134.947L118.085 134.301L118.053 134.962C120.378 135.477 122.756 135.716 125.137 135.674C129.054 135.458 131.828 134.58 133.382 133.066C135.444 131.058 136.388 126.751 139.044 126.109C145.299 124.599 152.939 126.036 156.568 119.331C160.398 112.255 160.109 111.035 153.473 106.27ZM148.597 115.162C143.861 120.194 136.213 114.787 131.717 119.283C130.264 120.736 131.555 125.721 127.69 126.445C126.388 126.688 121.839 126.758 120.697 126.299C111.421 122.566 102.516 124.024 93.4842 130.756C92.6395 131.384 91.9234 131.966 91.2946 132.532C85.6055 137.664 79.3946 138.299 72.3074 134.472L71.5008 134.039C69.2279 132.888 67.0416 131.575 64.9581 130.109C61.4749 127.519 57.8362 126.206 54.1411 126.206C50.7909 126.287 47.514 127.203 44.6083 128.873C39.7895 131.478 38.8326 130.558 36.3346 128.61C32.6348 125.727 31.3582 124.409 28.5898 123.731C25.2004 122.903 21.7501 121.921 18.3345 120.813C16.9695 120.339 15.6327 119.787 14.3309 119.16L13.9593 118.99C23.893 114.921 31.0045 107.072 35.6875 95.0114C38.832 86.9102 40.0757 78.4481 41.1705 69.7673L41.6076 66.2828C42.6951 57.5922 43.8195 48.6058 45.4918 39.8982C46.9003 32.5616 50.7051 25.7783 56.7992 19.7347C67.4414 9.18144 87.2116 4.82212 102.888 17.5295C112.156 25.0406 117.557 35.1672 119.401 48.4876C120.496 56.4057 121.562 64.4669 122.593 72.2627L123.154 76.5027C125.169 91.7205 132.779 103.966 145.773 112.898C146.556 113.437 147.305 114.069 148.171 114.801L148.597 115.162Z" fill="black"/>
</g>
<defs>
<clipPath id="clip0">
<rect width="159.49" height="146.363" fill="white" transform="translate(0.0352783 0.616211)"/>
</clipPath>
</defs>
</svg>

<svg xmlns="http://www.w3.org/2000/svg" width="160" height="147" fill="none" viewBox="0 0 160 147"><g clip-path="url(#a)"><path fill="#000" d="M153.473 106.27q-.986-.706-1.956-1.419a630 630 0 0 0-1.859-1.35c-11.471-8.247-17.054-20.084-18.081-38.347l3.251-2.464a1761 1761 0 0 0 9.675-7.365l.575-.44a25.4 25.4 0 0 0 3.692-3.215c2.221-2.495 2.297-5.82.176-7.902-1.969-1.93-4.579-2.162-7.168-.636a15.7 15.7 0 0 0-2.46 1.924c-.281.25-.56.501-.847.74l-8.562 7.133-.152-.832c-.328-1.816-.59-3.251-.998-4.707-.48-1.723-.919-3.513-1.345-5.245l-.025-.1c-1.111-4.53-2.26-9.216-4.274-13.48-6.34-13.43-17.13-22.59-31.203-26.49C74.467-2.76 54.824 5.08 44.142 21.14c-6.497 9.773-8.573 20.66-9.653 29.053-.222 1.722-.449 3.445-.722 5.521l-.102.77-1.362-1.313a681 681 0 0 0-6.391-6.11l-.328-.31a19.8 19.8 0 0 0-3.532-2.85 5.84 5.84 0 0 0-7.779 1.356 5.485 5.485 0 0 0 .197 7.224 30.5 30.5 0 0 0 4.092 3.838 1699 1699 0 0 0 10.112 8.28l3.294 2.685c-.131 11.307-3.054 22.34-8.236 31.101-4.438 7.503-10.401 11.607-18.231 12.545-1.043.124-4.015-.311-4.731 2.638-1.209 4.978.489 6.65 5.644 9.154 4.024 1.953 8.252 3.592 12.374 5.19 2.28.884 4.636 1.798 6.918 2.752 1.478.617 2.965 1.326 3.832 2.323 4.377 5.021 7.842 5.968 13.73 3.751 1.445-.545 2.833-1.223 4.198-1.891l.811-.394c4.29-2.078 8.046-1.716 11.82 1.14a53.6 53.6 0 0 0 11.31 6.57 26.8 26.8 0 0 0 10.413 2.277h.005a22.34 22.34 0 0 0 13.812-4.916c.71-.544 1.431-1.077 2.2-1.645q.786-.58 1.568-1.166a20.97 20.97 0 0 1 16.775-4.081c.59.097 1.19.206 1.788.314l.117-.646-.032.661c2.325.515 4.703.754 7.084.712 3.917-.216 6.691-1.094 8.245-2.608 2.062-2.008 3.006-6.315 5.662-6.957 6.255-1.51 13.895-.073 17.524-6.778 3.83-7.076 3.541-8.296-3.095-13.061m-4.876 8.892c-4.736 5.032-12.384-.375-16.88 4.121-1.453 1.453-.162 6.438-4.027 7.162-1.302.243-5.851.313-6.993-.146-9.276-3.733-18.181-2.275-27.213 4.457-.844.628-1.56 1.21-2.19 1.776-5.688 5.132-11.9 5.767-18.987 1.94l-.806-.433a53 53 0 0 1-6.543-3.93c-3.483-2.59-7.122-3.903-10.817-3.903-3.35.081-6.627.997-9.533 2.667-4.818 2.605-5.775 1.685-8.273-.263-3.7-2.883-4.977-4.201-7.745-4.879a145 145 0 0 1-10.256-2.918 38 38 0 0 1-4.003-1.653l-.372-.17c9.934-4.069 17.046-11.918 21.729-23.979 3.144-8.1 4.388-16.563 5.482-25.244l.438-3.484c1.087-8.69 2.212-17.677 3.884-26.385 1.408-7.336 5.213-14.12 11.307-20.163C67.441 9.18 87.212 4.822 102.888 17.529c9.268 7.512 14.669 17.638 16.513 30.959 1.095 7.918 2.161 15.979 3.192 23.775l.561 4.24c2.015 15.218 9.625 27.463 22.619 36.395.783.539 1.532 1.171 2.398 1.903z"/></g><defs><clipPath id="a"><path fill="#fff" d="M.035.616h159.49V146.98H.035z"/></clipPath></defs></svg>
